public/assets/images/icons/regions.svg

<svg viewBox="0 0 14.98 15.23" xmlns="http://www.w3.org/2000/svg"><path d="m7.49 0a7.55 7.55 0 0 0 -7.49 7.61 7.55 7.55 0 0 0 7.49 7.62 7.55 7.55 0 0 0 7.51-7.62 7.55 7.55 0 0 0 -7.51-7.61zm1.13 12.66-.55 1.34a.17.17 0 0 1 -.2.1 10 10 0 0 0 -3.16-.26.11.11 0 0 1 -.1-.08l-.29-1.88a.1.1 0 0 1 .08-.12 11 11 0 0 1 4.12.69.18.18 0 0 1 .1.21zm.22-.55a11.55 11.55 0 0 0 -4.15-.74c-.06 0-.11 0-.11-.08l-.24-1.83a.1.1 0 0 1 .1-.12 14.19 14.19 0 0 1 5.1 1.35zm1.69-3.51-.72 1.56a.18.18 0 0 1 -.23.08 13.47 13.47 0 0 0 -4.85-1.24.11.11 0 0 1 -.09-.08l-.29-1.8a.09.09 0 0 1 .08-.12 13 13 0 0 1 6 1.36.17.17 0 0 1 .1.24zm1.52-3.27-1.05 2.45a.16.16 0 0 1 -.22.09 14.06 14.06 0 0 0 -5.93-1.34.1.1 0 0 1 -.1-.09l-.41-2.86a.09.09 0 0 1 .08-.1 14.29 14.29 0 0 1 7.58 1.62.18.18 0 0 1 .05.23zm.36-.83a.17.17 0 0 1 -.23.09 15.64 15.64 0 0 0 -7.37-1.59.12.12 0 0 1 -.11 0l-.19-1.18a.11.11 0 0 1 .1-.11 14.73 14.73 0 0 1 8.15 1.53.19.19 0 0 1 .09.23z"/></svg>

<svg xmlns="http://www.w3.org/2000/svg" viewBox="0 0 14.98 15.23"><defs><style>.cls-1{fill:#fff;opacity:0.7;}</style></defs><title>Asset 14</title><g id="Layer_2" data-name="Layer 2"><g id="Layer_1-2" data-name="Layer 1"><path class="cls-1" d="M7.49,0A7.55,7.55,0,0,0,0,7.61a7.55,7.55,0,0,0,7.49,7.62A7.55,7.55,0,0,0,15,7.61,7.55,7.55,0,0,0,7.49,0ZM8.62,12.66,8.07,14a.17.17,0,0,1-.2.1,10,10,0,0,0-3.16-.26.11.11,0,0,1-.1-.08l-.29-1.88a.1.1,0,0,1,.08-.12,11,11,0,0,1,4.12.69A.18.18,0,0,1,8.62,12.66Zm.22-.55a11.55,11.55,0,0,0-4.15-.74c-.06,0-.11,0-.11-.08L4.34,9.46a.1.1,0,0,1,.1-.12,14.19,14.19,0,0,1,5.1,1.35ZM10.53,8.6l-.72,1.56a.18.18,0,0,1-.23.08A13.47,13.47,0,0,0,4.73,9a.11.11,0,0,1-.09-.08l-.29-1.8A.09.09,0,0,1,4.43,7a13,13,0,0,1,6,1.36A.17.17,0,0,1,10.53,8.6Zm1.52-3.27L11,7.78a.16.16,0,0,1-.22.09A14.06,14.06,0,0,0,4.85,6.53a.1.1,0,0,1-.1-.09L4.34,3.58a.09.09,0,0,1,.08-.1A14.29,14.29,0,0,1,12,5.1.18.18,0,0,1,12.05,5.33Zm.36-.83a.17.17,0,0,1-.23.09A15.64,15.64,0,0,0,4.81,3,.12.12,0,0,1,4.7,3L4.51,1.82a.11.11,0,0,1,.1-.11,14.73,14.73,0,0,1,8.15,1.53.19.19,0,0,1,.09.23Z"/></g></g></svg>
